dist/assets/img/header/expand-collapsible-label.svg

<svg width="18" height="18" viewBox="0 0 18 18" fill="none" xmlns="http://www.w3.org/2000/svg">
<circle cx="9" cy="9" r="9" fill="#FF3D00"/>
<path d="M7.80166 12.75L10.8945 6.25575L10.2381 6L7.1453 12.4942L7.80166 12.75ZM6.47901 9.64445C7.66243 9.64445 8.45801 8.83153 8.45801 7.83593C8.45801 6.76725 7.56298 6.04567 6.47901 6.04567C5.29558 6.04567 4.5 6.84946 4.5 7.83593C4.5 8.92287 5.38508 9.64445 6.47901 9.64445ZM6.47901 9.05988C5.77293 9.05988 5.20608 8.57578 5.20608 7.84506C5.20608 7.17828 5.71326 6.63938 6.47901 6.63938C7.20497 6.63938 7.77182 7.12348 7.77182 7.84506C7.77182 8.52097 7.26464 9.05988 6.47901 9.05988ZM11.511 12.6495C12.7044 12.6495 13.5 11.8457 13.5 10.8501C13.5 9.77233 12.605 9.05988 11.511 9.05988C10.3276 9.05988 9.53204 9.86367 9.53204 10.8501C9.53204 11.9279 10.4271 12.6495 11.511 12.6495ZM11.521 12.0741C10.805 12.0741 10.2282 11.5809 10.2282 10.8593C10.2282 10.1925 10.7453 9.65359 11.521 9.65359C12.237 9.65359 12.8138 10.1377 12.8138 10.8593C12.8138 11.5352 12.2967 12.0741 11.521 12.0741Z" fill="white"/>
</svg>

<svg width="18" height="18" viewBox="0 0 18 18" fill="none" xmlns="http://www.w3.org/2000/svg"><circle cx="9" cy="9" r="9" fill="#FF3D00"/><path d="M7.802 12.75l3.093-6.494L10.238 6l-3.093 6.494.657.256zM6.479 9.644c1.183 0 1.979-.812 1.979-1.808 0-1.069-.895-1.79-1.979-1.79-1.183 0-1.979.803-1.979 1.79 0 1.087.885 1.808 1.979 1.808zm0-.584c-.706 0-1.273-.484-1.273-1.215 0-.667.507-1.206 1.273-1.206.726 0 1.293.484 1.293 1.206 0 .676-.507 1.215-1.293 1.215zm5.032 3.59c1.193 0 1.989-.804 1.989-1.8 0-1.078-.895-1.79-1.989-1.79-1.183 0-1.979.804-1.979 1.79 0 1.078.895 1.8 1.979 1.8zm.01-.576c-.716 0-1.293-.493-1.293-1.215 0-.666.517-1.205 1.293-1.205.716 0 1.293.484 1.293 1.205 0 .676-.517 1.215-1.293 1.215z" fill="#fff"/></svg>
